!!!OTL: Christi Klage (2-6) S. 29
!!!id: P0879
**kern
*clefG2
*k[b-]
*f:
{8f
=1
4c
8f
=2
4a-
8g
=3
4f
8e
=4
4f}
=5
{8e-
=6
4a-
8b-
=7
4cc
8dd-
=8
8cc
8a-
8b-
=9
4cc}
=10
{8cc
=11
4ee-
8cc
=12
8dd-
8cc
8b-
=13
4cc
8b-
=14
4a-}
=15
{8cc
=16
4cc
8b-
=17
8b-
8a-
8g
=18
4f
8e
=19
4f}
==
*-
!!!minrhy: 8
!!!meters: 3/8 ]  ZZ[4
!!!cut: Christi Klage (2-6) S. 29
!!!reg: Lothringen
!!!trd: PINCK, Louis: Verklingende Weisen, Bd 2, Metz 1928
!!!rhy1: X  X_X  X_X  X_X  X_
!!!rhy2: X  X_X  X_X  XXX  X_
!!!key: P0879  08  F 3/8 ]  ZZ[4
!!!mod: ACHTTONSKALA MELODISCH MOLL OHNE 6]  AMBITUS[10b
!!!kad: 153b1
!!!akz: -53b11_3b555_7b6b53b_5411_
!!!fot: 'a__b__c__d__
!!!for: 'a__b__c__c__
!!!fok: 'S__~a_^d_\__
!! PHRAS[AUFTAKTIG]
!!!fkt: geistliche, religiöse Lieder
!! LOTH VKL
!! PR[11] 2K[8] 2G[18] 3K[4] 3G[3] 4A[4] 4Ü[0] 5A[0] 6K[1] 6G[0]
!! 7K[0] 7G[0] 8A[0] MEHR[0] SI[38] ABS[169] SR[26] SP[12]
!! ST[38] 2k[15] 2g[31] 3k[1] 3g[1] 4d[2] 4ü[0] 5d[0] 6k[0] 6g[0]
!! 7k[0] 7g[0] 8d[0] mehr[0] si[51] dm[-13] sr[46] sp[5]
!! 1F[8] 2F[34] 3F[37] 4F[3] LF[0] 2P[1] 3P[8] 4P[0] TRI[0] DF[7] AB[171]
!! TF[0] U3K[0] U3[0] U4[0] U4Ü[0] U5[2] U6K[1] U6[0] U7K[2] U7[2]
!! N1[15] N2K[1] N2[13] N3K[16] N3[1] N4[16] N4Ü[0] N5[19] N6K[5] N6[0]
!!!n7k: 4] N7[0] O1[2] O2K[0] O2[0] O3K[1] O3[0] HÖ[0
